X:1
T:[ID 1-36]
T:[ID 1-36]
T:Bezeichnung standardisiert: Menuet Jomelli; Menuet 10. In anderer Quelle: Menuet van Jomelli - Hs. Volksmelodie\"en 1755-1773 (Anm. S. Wascher);
T:Urheber unbekannt Erstbeleg: 1755-1767 (Datum in der schriftlichen Quelle) Datum in der hier transkribierten schriftlichen Quelle: vermutlich um 1800
C:Urheber unbekannt
C:Erstbeleg: 1755-1767 (Datum in der schriftlichen Quelle)
C:Datum in der hier transkribierten schriftlichen Quelle: vermutlich um 1800
L:1/8
M:3/4
K:D
V:1 treble 
V:1
 fd A2 G2 | FG A4 | df A2 G2 | FG A4 | cd .e2 .e2 | Bc .d2 .d2 | cecAB^G | A6 :: TA4 a2 | agfa g2 | %10
 TA4 g2 | gfeg f2 |"^O)" afdAFD | TE4 D2 |"^O)" afdAFD | TE4 D2 | fg .a2 .a2 | ef .g2 .g2 | %18
 fafdec | d6 :| %20

